小程序/upload.svg

<svg width="18" height="15">
  <path fill="#000" fill-rule="evenodd" d="M15.174513 2.96386719c.5976592 0 1.1012349.20198365 1.5107422.60595703.4095072.40397337.6142578.91031597.6142578 1.51904297V12.875c0 .5976592-.2047506 1.1012349-.6142578 1.5107422C16.2757479 14.7952494 15.7721722 15 15.174513 15H2.42451297c-.59765924 0-1.10123493-.2047506-1.51074219-.6142578-.40950725-.4095073-.61425781-.913083-.61425781-1.5107422V5.08886719c0-.608727.20475056-1.1150696.61425781-1.51904297.40950726-.40397338.91308295-.60595703 1.51074219-.60595703h2.47363281l1.21191407-1.84277344c.06640658-.07747435.14941356-.14387993.24902343-.19921875.09960988-.05533882.20475205-.08300781.31542969-.08300781H10.924513c.1106776 0 .2158198.02766899.3154297.08300781.0996098.05533882.1826168.1217444.2490234.19921875l1.2119141 1.84277344h2.4736328zM15.8883802 12.875V5.08886719c0-.22135528-.0664056-.39566994-.1992188-.52294922C15.5563482 4.43863869 15.3848005 4.375 15.174513 4.375h-2.8388672c-.0996099 0-.2019852-.03043589-.3071289-.09130859-.1051438-.0608727-.2130529-.12451139-.3237305-.19091797L10.4928723 2.25H7.02314578l-1.1953125 1.84277344c-.07747434.06640658-.16601512.13004527-.265625.19091797-.09960987.0608727-.19921825.09130859-.29882812.09130859H2.42451297c-.21028751 0-.38183527.06363869-.51464844.19091797-.13281316.12727928-.19921875.30159394-.19921875.52294922V12.875c0 .2102875.06640559.3818353.19921875.5146484.13281317.1328132.30436093.1992188.51464844.1992188H15.174513c.2102875 0 .3818352-.0664056.5146484-.1992188.1328132-.1328131.1992188-.3043609.1992188-.5146484zM8.79951297 5.08886719c.49804937 0 .96288847.09130768 1.39453123.27392578.4316428.1826181.8051742.43163905 1.1206055.74707031.3154313.31543127.5644522.68896269.7470703 1.12060547.1826181.43164278.2739258.89648188.2739258 1.39453125 0 .4980494-.0913077.9628885-.2739258 1.3945312-.1826181.4316428-.431639.8051743-.7470703 1.1206055-.3154313.3154313-.6889627.5644522-1.1206055.7470703-.43164276.1826181-.89648186.2739258-1.39453123.2739258-.49804937 0-.96288847-.0913077-1.39453125-.2739258s-.8051742-.431639-1.12060547-.7470703c-.31543126-.3154312-.56445221-.6889627-.74707031-1.1206055-.1826181-.4316427-.27392578-.8964818-.27392578-1.3945312 0-.49804937.09130768-.96288847.27392578-1.39453125s.43163905-.8051742.74707031-1.12060547c.31543127-.31543126.68896269-.56445221 1.12060547-.74707031.43164278-.1826181.89648188-.27392578 1.39453125-.27392578zm0 5.66113281c.59765924 0 1.10123493-.2047506 1.51074223-.6142578.4095072-.4095073.6142578-.913083.6142578-1.5107422 0-.59765924-.2047506-1.10123493-.6142578-1.51074219C9.9007479 6.70475056 9.39717221 6.5 8.79951297 6.5c-.59765924 0-1.10123493.20475056-1.51074219.61425781-.40950725.40950726-.61425781.91308295-.61425781 1.51074219 0 .5976592.20475056 1.1012349.61425781 1.5107422.40950726.4095072.91308295.6142578 1.51074219.6142578z"/>
</svg>

<?xml version="1.0" encoding="UTF-8"?>
<svg width="18px" height="15px" viewBox="0 0 18 15" version="1.1" xmlns="http://www.w3.org/2000/svg" xmlns:xlink="http://www.w3.org/1999/xlink">
    <!-- Generator: Sketch 50 (54983) - http://www.bohemiancoding.com/sketch -->
    <title>upload</title>
    <desc>Created with Sketch.</desc>
    <defs></defs>
    <g id="Page-1" stroke="none" stroke-width="1" fill="none" fill-rule="evenodd">
        <g id="upload" fill="#000000">
            <path d="M15.174513,2.96386719 C15.7721722,2.96386719 16.2757479,3.16585084 16.6852552,3.56982422 C17.0947624,3.97379759 17.299513,4.48014019 17.299513,5.08886719 L17.299513,12.875 C17.299513,13.4726592 17.0947624,13.9762349 16.6852552,14.3857422 C16.2757479,14.7952494 15.7721722,15 15.174513,15 L2.42451297,15 C1.82685373,15 1.32327804,14.7952494 0.91377078,14.3857422 C0.50426353,13.9762349 0.29951297,13.4726592 0.29951297,12.875 L0.29951297,5.08886719 C0.29951297,4.48014019 0.50426353,3.97379759 0.91377078,3.56982422 C1.32327804,3.16585084 1.82685373,2.96386719 2.42451297,2.96386719 L4.89814578,2.96386719 L6.11005985,1.12109375 C6.17646643,1.0436194 6.25947341,0.97721382 6.35908328,0.921875 C6.45869316,0.86653618 6.56383533,0.83886719 6.67451297,0.83886719 L10.924513,0.83886719 C11.0351906,0.83886719 11.1403328,0.86653618 11.2399427,0.921875 C11.3395525,0.97721382 11.4225595,1.0436194 11.4889661,1.12109375 L12.7008802,2.96386719 L15.174513,2.96386719 Z M15.8883802,12.875 L15.8883802,5.08886719 C15.8883802,4.86751191 15.8219746,4.69319725 15.6891614,4.56591797 C15.5563482,4.43863869 15.3848005,4.375 15.174513,4.375 L12.3356458,4.375 C12.2360359,4.375 12.1336606,4.34456411 12.0285169,4.28369141 C11.9233731,4.22281871 11.815464,4.15918002 11.7047864,4.09277344 L10.4928723,2.25 L7.02314578,2.25 L5.82783328,4.09277344 C5.75035894,4.15918002 5.66181816,4.22281871 5.56220828,4.28369141 C5.46259841,4.34456411 5.36299003,4.375 5.26338016,4.375 L2.42451297,4.375 C2.21422546,4.375 2.0426777,4.43863869 1.90986453,4.56591797 C1.77705137,4.69319725 1.71064578,4.86751191 1.71064578,5.08886719 L1.71064578,12.875 C1.71064578,13.0852875 1.77705137,13.2568353 1.90986453,13.3896484 C2.0426777,13.5224616 2.21422546,13.5888672 2.42451297,13.5888672 L15.174513,13.5888672 C15.3848005,13.5888672 15.5563482,13.5224616 15.6891614,13.3896484 C15.8219746,13.2568353 15.8883802,13.0852875 15.8883802,12.875 Z M8.79951297,5.08886719 C9.29756234,5.08886719 9.76240144,5.18017487 10.1940442,5.36279297 C10.625687,5.54541107 10.9992184,5.79443202 11.3146497,6.10986328 C11.630081,6.42529455 11.8791019,6.79882597 12.06172,7.23046875 C12.2443381,7.66211153 12.3356458,8.12695063 12.3356458,8.625 C12.3356458,9.1230494 12.2443381,9.5878885 12.06172,10.0195312 C11.8791019,10.451174 11.630081,10.8247055 11.3146497,11.1401367 C10.9992184,11.455568 10.625687,11.7045889 10.1940442,11.887207 C9.76240144,12.0698251 9.29756234,12.1611328 8.79951297,12.1611328 C8.3014636,12.1611328 7.8366245,12.0698251 7.40498172,11.887207 C6.97333894,11.7045889 6.59980752,11.455568 6.28437625,11.1401367 C5.96894499,10.8247055 5.71992404,10.451174 5.53730594,10.0195312 C5.35468784,9.5878885 5.26338016,9.1230494 5.26338016,8.625 C5.26338016,8.12695063 5.35468784,7.66211153 5.53730594,7.23046875 C5.71992404,6.79882597 5.96894499,6.42529455 6.28437625,6.10986328 C6.59980752,5.79443202 6.97333894,5.54541107 7.40498172,5.36279297 C7.8366245,5.18017487 8.3014636,5.08886719 8.79951297,5.08886719 Z M8.79951297,10.75 C9.39717221,10.75 9.9007479,10.5452494 10.3102552,10.1357422 C10.7197624,9.7262349 10.924513,9.2226592 10.924513,8.625 C10.924513,8.02734076 10.7197624,7.52376507 10.3102552,7.11425781 C9.9007479,6.70475056 9.39717221,6.5 8.79951297,6.5 C8.20185373,6.5 7.69827804,6.70475056 7.28877078,7.11425781 C6.87926353,7.52376507 6.67451297,8.02734076 6.67451297,8.625 C6.67451297,9.2226592 6.87926353,9.7262349 7.28877078,10.1357422 C7.69827804,10.5452494 8.20185373,10.75 8.79951297,10.75 Z" id="Shape"></path>
        </g>
    </g>
</svg>
